symbols/web/stars/materialsymbolsoutlined/stars_wght300fill1_40px.svg

<svg xmlns="http://www.w3.org/2000/svg" height="40" width="40"><path d="m13.75 29.375 6.25-4.75 6.25 4.75-2.417-7.708 6.25-4.417h-7.625L20 9.25l-2.458 8H9.917l6.25 4.417ZM20 35.833q-3.25 0-6.146-1.25t-5.042-3.395q-2.145-2.146-3.395-5.042T4.167 20q0-3.292 1.25-6.187 1.25-2.896 3.395-5.021 2.146-2.125 5.042-3.375T20 4.167q3.292 0 6.188 1.25 2.895 1.25 5.02 3.375 2.125 2.125 3.375 5.021 1.25 2.895 1.25 6.187 0 3.25-1.25 6.146t-3.375 5.042q-2.125 2.145-5.02 3.395-2.896 1.25-6.188 1.25Z"/></svg>

<svg xmlns="http://www.w3.org/2000/svg" height="40" width="40"><path d="M20 35.833Q16.667 35.833 13.792 34.604Q10.917 33.375 8.771 31.229Q6.625 29.083 5.396 26.208Q4.167 23.333 4.167 20Q4.167 16.708 5.396 13.813Q6.625 10.917 8.771 8.771Q10.917 6.625 13.792 5.396Q16.667 4.167 20 4.167Q23.292 4.167 26.188 5.396Q29.083 6.625 31.229 8.771Q33.375 10.917 34.604 13.813Q35.833 16.708 35.833 20Q35.833 23.333 34.604 26.208Q33.375 29.083 31.229 31.229Q29.083 33.375 26.188 34.604Q23.292 35.833 20 35.833ZM13.75 29.375 20 24.625 26.25 29.375 23.833 21.667 30.083 17.25H22.458L20 9.25L17.542 17.25H9.917L16.167 21.667Z"/></svg>
